X: 147
T: A Cup Of Tea
R: reel
M: 4/4
K: Amixolydian
|:eA (3AAA g2 fg|eA (3AAA BGGf|eA (3AAA g2 fg|1 afge d2 gf:|2 afge d2 cd||
|:eaag efgf|eaag edBd|eaag efge|afge dgfg:|

